Sources/FrostedUI/Resources/Icons.xcassets/medalCheckmark32.imageset/medal-checkmark-32.svg

<svg width="32" height="32" viewBox="0 0 32 32" fill="none" xmlns="http://www.w3.org/2000/svg" data-fui-icon="true">
  <path
    d="M6.32214 0.0625C8.53024 0.0627071 10.1788 1.85022 10.5575 3.85547C10.9548 5.95953 11.6981 7.66839 12.3417 8.84961C12.598 9.32007 12.8378 9.70536 13.0321 9.99707C13.9773 9.738 14.9725 9.59962 15.9999 9.59961C17.0272 9.59961 18.0225 9.73803 18.9677 9.99707C19.162 9.70536 19.4017 9.32008 19.6581 8.84961C20.3016 7.66839 21.045 5.95953 21.4423 3.85547C21.821 1.85009 23.4703 0.0625 25.6786 0.0625H28.0536C29.7516 0.0627048 31.3056 1.4765 30.9969 3.32617C30.3777 7.0355 28.4718 9.7668 26.7401 11.5596C25.9095 12.4195 25.1136 13.0696 24.5077 13.5146C26.1863 15.4731 27.2 18.0182 27.2001 20.7998C27.2001 26.9854 22.1855 32 15.9999 32C9.81436 31.9999 4.79968 26.9853 4.79968 20.7998C4.79973 18.0177 5.81487 15.4722 7.49402 13.5137C6.88945 13.0686 6.09517 12.4193 5.26648 11.5596C3.53838 9.7667 1.63636 7.03525 1.01843 3.32617C0.710273 1.47645 2.26444 0.0625 3.96277 0.0625H6.32214ZM15.9999 11.0996C10.6429 11.0997 6.29979 15.4428 6.29968 20.7998C6.29968 26.1569 10.6428 30.4999 15.9999 30.5C21.357 30.5 25.7001 26.157 25.7001 20.7998C25.7 15.4427 21.357 11.0996 15.9999 11.0996ZM19.4696 17.4697C19.7625 17.1769 20.2373 17.1769 20.5302 17.4697C20.823 17.7626 20.823 18.2374 20.5302 18.5303L14.9305 24.1299C14.6376 24.4228 14.1629 24.4228 13.87 24.1299L11.4696 21.7305C11.1768 21.4376 11.1769 20.9628 11.4696 20.6699C11.7625 20.377 12.2373 20.377 12.5302 20.6699L14.4003 22.5391L19.4696 17.4697ZM25.6786 1.5625C24.3523 1.5625 23.1931 2.66599 22.9159 4.13379C22.4833 6.42507 21.6756 8.28232 20.9755 9.56738C20.7804 9.92543 20.5936 10.24 20.4247 10.5078C21.5358 10.9861 22.5535 11.6396 23.4442 12.4326C23.478 12.4086 23.5132 12.3832 23.5487 12.3574C24.1068 11.9527 24.8663 11.3404 25.661 10.5176C27.2525 8.86997 28.9626 6.40231 29.5175 3.0791C29.6449 2.31443 29.006 1.56269 28.0536 1.5625H25.6786ZM3.96277 1.5625C3.01014 1.5625 2.37044 2.31487 2.49792 3.08008C3.05169 6.40345 4.75866 8.87114 6.34656 10.5186C7.13946 11.3411 7.89724 11.9528 8.45398 12.3574C8.48894 12.3828 8.52321 12.4079 8.55652 12.4316C9.44712 11.6389 10.4652 10.986 11.576 10.5078C11.4071 10.2399 11.2194 9.92555 11.0243 9.56738C10.3242 8.28232 9.51649 6.42507 9.08386 4.13379C8.80672 2.66615 7.64824 1.56271 6.32214 1.5625H3.96277Z"
    fill="currentColor"
  />
</svg>

<svg xmlns="http://www.w3.org/2000/svg" width="32" height="32" fill="none" data-fui-icon="true" viewBox="0 0 32 32"><path fill="currentColor" d="M6.322.063c2.208 0 3.857 1.787 4.235 3.792a17.2 17.2 0 0 0 1.785 4.995c.256.47.496.855.69 1.147.945-.259 1.94-.397 2.968-.397 1.027 0 2.023.138 2.968.397.194-.292.434-.677.69-1.147a17.2 17.2 0 0 0 1.784-4.995C21.821 1.85 23.47.063 25.68.063h2.375c1.698 0 3.252 1.414 2.943 3.263-.62 3.71-2.525 6.44-4.257 8.234-.83.86-1.626 1.51-2.232 1.955A11.16 11.16 0 0 1 27.2 20.8C27.2 26.985 22.186 32 16 32S4.8 26.985 4.8 20.8c0-2.782 1.015-5.328 2.694-7.286a17.7 17.7 0 0 1-2.228-1.954c-1.728-1.793-3.63-4.525-4.248-8.234C.71 1.476 2.264.063 3.963.063zM16 11.1c-5.357 0-9.7 4.343-9.7 9.7s4.343 9.7 9.7 9.7 9.7-4.343 9.7-9.7-4.343-9.7-9.7-9.7m3.47 6.37a.75.75 0 0 1 1.06 1.06l-5.6 5.6a.75.75 0 0 1-1.06 0l-2.4-2.4a.75.75 0 0 1 1.06-1.06l1.87 1.87zm6.209-15.907c-1.327 0-2.486 1.103-2.763 2.57a18.7 18.7 0 0 1-1.94 5.434q-.296.538-.551.94a11.2 11.2 0 0 1 3.02 1.926l.104-.076a16 16 0 0 0 2.112-1.84c1.592-1.647 3.302-4.115 3.856-7.438.128-.765-.511-1.516-1.463-1.517zm-21.716 0c-.953 0-1.593.752-1.465 1.517.554 3.323 2.26 5.791 3.849 7.439.792.822 1.55 1.434 2.107 1.838l.103.075a11.2 11.2 0 0 1 3.019-1.924 17 17 0 0 1-.552-.94 18.7 18.7 0 0 1-1.94-5.434c-.277-1.468-1.436-2.571-2.762-2.572z"/></svg>
